X: 33987
T: Reel à Cédulie
R: reel
M: 4/4
K: Dmajor
dc|:BGGG BGBG|DGBG ABcd|eece dcBd|
cBAc BGdc|BGGG DGBG|ABcd eece|
dcBd ceag|1 fdef g2dc:|2 [M:2/4] fdef||
[M:4/4]|:g2dg Bgdg|Bgba gfed|eaaa eafa|
eafa gfed|ef g2 ddBd|bagf edcB|
[1 ABcd egfa:|2 ABcd egfa|[M:2/4] g2d c||

